public/personal/saphire.svg

<svg fill="none" height="90" viewBox="0 0 90 90" width="90" xmlns="http://www.w3.org/2000/svg" xmlns:xlink="http://www.w3.org/1999/xlink"><linearGradient id="a" gradientUnits="userSpaceOnUse" x1="14.9259" x2="80.2593" y1="11.5185" y2="80.4815"><stop offset="0" stop-color="#63fefe"/><stop offset="1" stop-color="#1f6d6d"/></linearGradient><radialGradient id="b" cx="0" cy="0" gradientTransform="matrix(29.55555495 30.07406126 -30.07406126 29.55555495 43.9631 49.8891)" gradientUnits="userSpaceOnUse" r="1"><stop offset="0" stop-color="#50d5d5"/><stop offset="1" stop-color="#0e3c3c"/></radialGradient><linearGradient id="c" gradientUnits="userSpaceOnUse" x1="31.0001" x2="49.1482" y1="21.889" y2="73.2224"><stop offset="0" stop-color="#1d6f6f"/><stop offset="1" stop-color="#64e5e5"/></linearGradient><linearGradient id="d" gradientUnits="userSpaceOnUse" x1="26.6162" x2="66.4479" y1="27.0742" y2="76.0978"><stop offset="0" stop-color="#fff" stop-opacity=".44"/><stop offset="1" stop-color="#fff" stop-opacity=".12"/></linearGradient><path d="m41.124 17.7135c1.7227-2.9838 6.0293-2.9838 7.752 0l29.0701 50.3509c1.7227 2.9837-.4306 6.7134-3.876 6.7134h-58.1402c-3.4454 0-5.5987-3.7297-3.876-6.7134z" fill="url(#a)"/><path d="m44.0824 32.2208c.4079-.7065 1.4275-.7065 1.8354 0l18.4347 31.9299c.4079.7064-.1019 1.5895-.9177 1.5895h-36.8694c-.8158 0-1.3256-.8831-.9177-1.5896z" fill="url(#b)" stroke="url(#c)" stroke-width="3.55704"/><path d="m47.6377 31.2278c-1.1723-2.0304-4.1029-2.0304-5.2752 0l-18.4347 31.9299c-1.1723 2.0304.2931 4.5684 2.6376 4.5684h36.8694c2.3445 0 3.8098-2.538 2.6376-4.5684z" stroke="url(#d)" stroke-width=".414815"/></svg>

<svg width="90" height="90" viewBox="0 0 90 90" fill="none" xmlns="http://www.w3.org/2000/svg">
<path d="M41.124 17.7135C42.8467 14.7297 47.1533 14.7297 48.876 17.7135L77.9461 68.0644C79.6688 71.0481 77.5155 74.7778 74.0701 74.7778H15.9299C12.4845 74.7778 10.3312 71.0481 12.0539 68.0644L41.124 17.7135Z" fill="url(#paint0_linear_514_15048)"/>
<path d="M44.0824 32.2208C44.4903 31.5143 45.5099 31.5143 45.9178 32.2208L64.3525 64.1507C64.7604 64.8571 64.2506 65.7402 63.4348 65.7402H26.5654C25.7496 65.7402 25.2398 64.8571 25.6477 64.1506L44.0824 32.2208Z" fill="url(#paint1_radial_514_15048)" stroke="url(#paint2_linear_514_15048)" stroke-width="3.55704"/>
<path d="M47.6377 31.2278C46.4654 29.1974 43.5348 29.1974 42.3625 31.2278L23.9278 63.1577C22.7555 65.1881 24.2209 67.7261 26.5654 67.7261H63.4348C65.7793 67.7261 67.2446 65.1881 66.0724 63.1577L47.6377 31.2278Z" stroke="url(#paint3_linear_514_15048)" stroke-width="0.414815"/>
<defs>
<linearGradient id="paint0_linear_514_15048" x1="14.9259" y1="11.5185" x2="80.2593" y2="80.4815" gradientUnits="userSpaceOnUse">
<stop stop-color="#63FEFE"/>
<stop offset="1" stop-color="#1F6D6D"/>
</linearGradient>
<radialGradient id="paint1_radial_514_15048" cx="0" cy="0" r="1" gradientUnits="userSpaceOnUse" gradientTransform="translate(43.9631 49.8891) rotate(45.4982) scale(42.1661)">
<stop stop-color="#50D5D5"/>
<stop offset="1" stop-color="#0E3C3C"/>
</radialGradient>
<linearGradient id="paint2_linear_514_15048" x1="31.0001" y1="21.889" x2="49.1482" y2="73.2224" gradientUnits="userSpaceOnUse">
<stop stop-color="#1D6F6F"/>
<stop offset="1" stop-color="#64E5E5"/>
</linearGradient>
<linearGradient id="paint3_linear_514_15048" x1="26.6162" y1="27.0742" x2="66.4479" y2="76.0978" gradientUnits="userSpaceOnUse">
<stop stop-color="white" stop-opacity="0.44"/>
<stop offset="1" stop-color="white" stop-opacity="0.12"/>
</linearGradient>
</defs>
</svg>
